source/svgs/lorry.svg

<svg xmlns="http://www.w3.org/2000/svg" viewBox="0 0 16.03 11.35" preserveAspectRatio="xMinYMax"><path fill="#F5F5F5" d="M0 5.48v3.43c0 .24.2.44.44.44h.9c0 1.11.9 2 2 2 1.11 0 2-.9 2-2h.9c.24 0 .44-.2.44-.44l-.01-7.13c0-.24-.2-.44-.44-.44H2.9c-.15 0-.28.07-.37.19L.07 5.23c-.04.07-.07.15-.07.24v.01zm1.2-.13l1.78-2.67h1.69v2.67H1.2zm1.14 4c0-.55.45-1 1-1s1 .45 1 1-.45 1-1 1-1-.45-1-1zm5-8.76l.01 8.18c0 .32.26.58.58.58h2.09c0 1.11.9 2 2 2 1.11 0 2-.9 2-2h1.42c.32 0 .58-.26.58-.58L16.01.59c0-.32-.26-.58-.58-.58H7.92C7.6 0 7.34.26 7.34.59zm3.68 8.75c0-.55.45-1 1-1s1 .45 1 1-.45 1-1 1c-.55.01-1-.44-1-1z"/></svg>

<?xml version="1.0" encoding="utf-8"?>
<!-- Generator: Adobe Illustrator 18.1.0, SVG Export Plug-In . SVG Version: 6.00 Build 0)  -->
<svg version="1.1" id="Layer_1" xmlns="http://www.w3.org/2000/svg" xmlns:xlink="http://www.w3.org/1999/xlink" x="0px" y="0px"
	 viewBox="0 0 16.03 11.35" enable-background="new 0 0 16.03 11.35" xml:space="preserve" preserveAspectRatio="xMinYMax">
<path fill="#F5F5F5" d="M0,5.48l0,3.43c0,0.24,0.2,0.44,0.44,0.44h0.9c0,1.11,0.9,2,2,2c1.11,0,2-0.9,2-2l0,0h0.9
	c0.24,0,0.44-0.2,0.44-0.44L6.67,1.78c0-0.24-0.2-0.44-0.44-0.44l0,0H4.67H2.9c-0.15,0-0.28,0.07-0.37,0.19l-2.46,3.7
	C0.03,5.3,0,5.38,0,5.47C0,5.47,0,5.48,0,5.48z M1.2,5.35l1.78-2.67h1.69l0,2.67L1.2,5.35z M2.34,9.35c0-0.55,0.45-1,1-1s1,0.45,1,1
	c0,0.55-0.45,1-1,1S2.34,9.9,2.34,9.35z M7.34,0.59l0.01,8.18c0,0.32,0.26,0.58,0.58,0.58h2.09c0,1.11,0.9,2,2,2c1.11,0,2-0.9,2-2
	h1.42c0.32,0,0.58-0.26,0.58-0.58l-0.01-8.18c0-0.32-0.26-0.58-0.58-0.58L7.92,0.01C7.6,0,7.34,0.26,7.34,0.59z M11.02,9.34
	c0-0.55,0.45-1,1-1c0.55,0,1,0.45,1,1c0,0.55-0.45,1-1,1C11.47,10.35,11.02,9.9,11.02,9.34z"/>
</svg>
